icon-themes/breeze_svg/cmd/32/moveup.svg

<svg viewBox="0 0 32 32" xmlns="http://www.w3.org/2000/svg"><path d="m24 13-4 6h8z" fill="#1d99f3"/><path d="m4 4v1h24v-1zm0 3v1h19v-1zm0 7v1h14v-1zm0 3v1h8v-1zm10 0v1h4v-1zm-10 7v1h24v-1zm0 3v1h18v-1zm20 1v1h4v-1z" fill="#4d4d4d"/></svg>

<svg xmlns="http://www.w3.org/2000/svg" viewBox="0 0 32 32">
 <path 
     style="fill:#1d99f3" 
     d="M 24 13 L 20 19 L 28 19 L 24 13 z "
     />
 <path 
     style="fill:#4d4d4d" 
     d="M 4 4 L 4 5 L 28 5 L 28 4 L 4 4 z M 4 7 L 4 8 L 23 8 L 23 7 L 4 7 z M 4 14 L 4 15 L 18 15 L 18 14 L 4 14 z M 4 17 L 4 18 L 12 18 L 12 17 L 4 17 z M 14 17 L 14 18 L 18 18 L 18 17 L 14 17 z M 4 24 L 4 25 L 28 25 L 28 24 L 4 24 z M 4 27 L 4 28 L 22 28 L 22 27 L 4 27 z M 24 28 L 24 29 L 28 29 L 28 28 L 24 28 z "
     />
</svg>
